icons/delete-a.svg

<svg width="24" height="24" viewBox="0 0 24 24" fill="none" xmlns="http://www.w3.org/2000/svg">
<path fill-rule="evenodd" clip-rule="evenodd" d="M7.60004 6.30005C7.15963 6.30005 6.79342 6.69892 6.84545 7.16724L6.84662 7.17775L7.84476 19.2552C8.0042 20.144 8.63874 20.7001 9.40004 20.7001H14.4C15.2383 20.7001 15.8906 20.0704 15.9531 19.3822L15.9536 19.3767L17.1546 7.16723C17.2066 6.69891 16.8405 6.30005 16.4 6.30005H7.60004ZM5.35337 7.32135C5.21264 5.99428 6.24438 4.80005 7.60004 4.80005H16.4C17.7579 4.80005 18.7908 5.99811 18.646 7.32774L17.4467 19.521C17.3077 21.0313 15.9608 22.2001 14.4 22.2001H9.40004C7.76944 22.2001 6.60936 20.968 6.36024 19.4734L6.35514 19.4428L5.35337 7.32135Z" fill="black"/>
<path fill-rule="evenodd" clip-rule="evenodd" d="M7.25006 2.55005C7.25006 2.13584 7.58585 1.80005 8.00006 1.80005H16.0001C16.4143 1.80005 16.7501 2.13584 16.7501 2.55005C16.7501 2.96426 16.4143 3.30005 16.0001 3.30005H8.00006C7.58585 3.30005 7.25006 2.96426 7.25006 2.55005Z" fill="black"/>
</svg>

<svg xmlns="http://www.w3.org/2000/svg" fill="none" viewBox="0 0 24 24">
  <path fill="#000" fill-rule="evenodd" d="M7.6 6.3a.776.776 0 0 0-.755.867l.002.01.998 12.078c.16.889.794 1.445 1.555 1.445h5c.838 0 1.49-.63 1.553-1.318v-.005l1.202-12.21A.776.776 0 0 0 16.4 6.3H7.6ZM5.353 7.321C5.213 5.994 6.244 4.8 7.6 4.8h8.8c1.358 0 2.39 1.198 2.246 2.528l-1.2 12.193c-.138 1.51-1.485 2.68-3.046 2.68h-5c-1.63 0-2.79-1.233-3.04-2.728l-.005-.03L5.353 7.32ZM7.25 2.55A.75.75 0 0 1 8 1.8h8a.75.75 0 0 1 0 1.5H8a.75.75 0 0 1-.75-.75Z" clip-rule="evenodd"/>
</svg>
